src/assets/image/block11/employee-decor6.svg

<svg width="26" height="26" viewBox="0 0 26 26" fill="none" xmlns="http://www.w3.org/2000/svg">
<path d="M22 0.5C22.69 0.5 23.25 1.06 23.25 1.75V6.44625L20.75 8.94625V3H3.25V23H20.75V19.5525L23.25 17.0525V24.25C23.25 24.94 22.69 25.5 22 25.5H2C1.31 25.5 0.75 24.94 0.75 24.25V1.75C0.75 1.06 1.31 0.5 2 0.5H22ZM24.2225 9.01L25.99 10.7775L16.2675 20.5L14.4975 20.4975L14.5 18.7325L24.2225 9.01V9.01ZM13.25 13V15.5H7V13H13.25ZM17 8V10.5H7V8H17Z" fill="#696FE6"/>
</svg>

<svg width="26" height="26" fill="none" xmlns="http://www.w3.org/2000/svg"><path d="M22 .5c.69 0 1.25.56 1.25 1.25v4.696l-2.5 2.5V3H3.25v20h17.5v-3.448l2.5-2.5v7.198c0 .69-.56 1.25-1.25 1.25H2c-.69 0-1.25-.56-1.25-1.25V1.75C.75 1.06 1.31.5 2 .5h20Zm2.223 8.51 1.767 1.768-9.723 9.722-1.77-.003.003-1.764 9.723-9.723ZM13.25 13v2.5H7V13h6.25ZM17 8v2.5H7V8h10Z" fill="#696FE6"/></svg>
